src/svg/middle-snow.svg

<svg xmlns="http://www.w3.org/2000/svg" width="1000" height="1000" viewBox="0 0 1000 1000"><path fill="#060606" d="M297.055 906.791c-11.268 0-20.434-9.155-20.434-20.423v-137.839c0-11.289 9.166-20.444 20.434-20.444 11.278 0 20.444 9.155 20.444 20.444v137.839c0 11.268-9.166 20.423-20.444 20.423zm77.391-44.666c-5.666 9.796-18.14 13.104-27.924 7.491l-119.369-68.952c-9.784-5.612-13.092-18.118-7.479-27.913 5.655-9.731 18.129-13.104 27.913-7.427l119.369 68.888c9.784 5.655 13.146 18.14 7.49 27.913zm-7.49-61.461l-119.369 68.952c-9.784 5.612-22.258 2.305-27.913-7.491-5.612-9.773-2.262-22.258 7.479-27.913l119.369-68.888c9.784-5.677 22.258-2.305 27.924 7.47 5.656 9.752 2.294 22.258-7.49 27.87zm365.958-115.815h-73.39c.043-1.344.192-2.688.192-4.012 0-19.782-3.991-44.281-11.183-61.418 38.05.149 68.033.234 84.38.234 68.952 0 124.843-44.474 124.843-113.414 0-68.994-55.891-118.216-124.843-118.216-9.539 0-18.736 1.205-27.679 3.222 2.924-13.487 4.61-27.443 4.61-41.838 0-107.897-87.454-195.362-195.362-195.362-102.094 0-185.813 78.395-194.445 178.279-7.672-1.152-15.396-1.963-23.41-1.963-84.444 0-152.905 62.752-152.905 147.186 0 84.487 68.461 141.53 152.905 141.53 16.838 0 44.324.107 82.802.192-7.48 17.414-11.652 41.358-11.652 61.567 0 1.323.139 2.668.192 4.012h-71.342c-118.12 0-213.982-89.075-213.982-207.302 0-107.994 80.124-191.329 184.138-205.915 35.266-103.054 132.706-177.276 247.7-177.276 137.038 0 249.29 105.263 260.856 239.271 81.371 19.186 141.957 85.395 141.957 172.613.001 101.805-82.566 178.61-184.382 178.61zm-220.629 61.333c-10.852 0-19.623-8.792-19.623-19.591v-132.033c0-10.777 8.771-19.569 19.623-19.569 10.787 0 19.516 8.792 19.516 19.569v132.033c0 10.799-8.729 19.591-19.516 19.591zm74.063-42.809c-5.421 9.368-17.371 12.569-26.719 7.148l-114.321-66.006c-9.357-5.378-12.569-17.371-7.149-26.719 5.367-9.368 17.318-12.591 26.719-7.149l114.343 66.007c9.345 5.378 12.547 17.371 7.127 26.719zm-7.128-58.857l-114.343 66.006c-9.357 5.421-21.352 2.22-26.719-7.148-5.42-9.348-2.208-21.341 7.149-26.719l114.321-66.007c9.348-5.441 21.298-2.219 26.719 7.149 5.421 9.348 2.219 21.341-7.127 26.719zm154.889 262.275c-11.311 0-20.423-9.155-20.423-20.423v-137.839c0-11.289 9.112-20.444 20.423-20.444 11.289 0 20.444 9.155 20.444 20.444v137.839c.001 11.268-9.155 20.423-20.444 20.423zm77.403-44.666c-5.655 9.796-18.14 13.104-27.935 7.491l-119.358-68.952c-9.795-5.612-13.146-18.118-7.49-27.913 5.677-9.731 18.14-13.104 27.935-7.427l119.358 68.888c9.731 5.655 13.102 18.14 7.49 27.913zm-7.491-61.461l-119.358 68.952c-9.795 5.612-22.258 2.305-27.935-7.491-5.655-9.773-2.305-22.258 7.49-27.913l119.358-68.888c9.795-5.677 22.279-2.305 27.935 7.47 5.613 9.752 2.242 22.258-7.49 27.87z"/></svg>

<?xml version="1.0" encoding="utf-8"?>
<!-- Generator: Adobe Illustrator 16.0.0, SVG Export Plug-In . SVG Version: 6.00 Build 0)  -->
<!DOCTYPE svg PUBLIC "-//W3C//DTD SVG 1.1//EN" "http://www.w3.org/Graphics/SVG/1.1/DTD/svg11.dtd">
<svg version="1.1" id="Layer_1" xmlns="http://www.w3.org/2000/svg" xmlns:xlink="http://www.w3.org/1999/xlink" x="0px" y="0px"
	 width="1000px" height="1000px" viewBox="0 0 1000 1000" enable-background="new 0 0 1000 1000" xml:space="preserve">
<path fill="#060606" d="M297.055,906.791c-11.268,0-20.434-9.155-20.434-20.423V748.529c0-11.289,9.166-20.444,20.434-20.444
	c11.278,0,20.444,9.155,20.444,20.444v137.839C317.499,897.636,308.333,906.791,297.055,906.791L297.055,906.791z M374.446,862.125
	c-5.666,9.796-18.14,13.104-27.924,7.491l-119.369-68.952c-9.784-5.612-13.092-18.118-7.479-27.913
	c5.655-9.731,18.129-13.104,27.913-7.427l119.369,68.888C376.74,839.867,380.102,852.352,374.446,862.125L374.446,862.125z
	 M366.956,800.664l-119.369,68.952c-9.784,5.612-22.258,2.305-27.913-7.491c-5.612-9.773-2.262-22.258,7.479-27.913l119.369-68.888
	c9.784-5.677,22.258-2.305,27.924,7.47C380.102,782.546,376.74,795.052,366.956,800.664L366.956,800.664z M732.914,684.849
	c-14.725,0-40.333,0-73.39,0c0.043-1.344,0.192-2.688,0.192-4.012c0-19.782-3.991-44.281-11.183-61.418
	c38.05,0.149,68.033,0.234,84.38,0.234c68.952,0,124.843-44.474,124.843-113.414c0-68.994-55.891-118.216-124.843-118.216
	c-9.539,0-18.736,1.205-27.679,3.222c2.924-13.487,4.61-27.443,4.61-41.838c0-107.897-87.454-195.362-195.362-195.362
	c-102.094,0-185.813,78.395-194.445,178.279c-7.672-1.152-15.396-1.963-23.41-1.963c-84.444,0-152.905,62.752-152.905,147.186
	c0,84.487,68.461,141.53,152.905,141.53c16.838,0,44.324,0.107,82.802,0.192c-7.48,17.414-11.652,41.358-11.652,61.567
	c0,1.323,0.139,2.668,0.192,4.012c-33.057,0-56.041,0-71.342,0c-118.12,0-213.982-89.075-213.982-207.302
	c0-107.994,80.124-191.329,184.138-205.915c35.266-103.054,132.706-177.276,247.7-177.276c137.038,0,249.29,105.263,260.856,239.271
	c81.371,19.186,141.957,85.395,141.957,172.613C917.297,608.044,834.73,684.849,732.914,684.849L732.914,684.849z M512.285,746.182
	c-10.852,0-19.623-8.792-19.623-19.591V594.558c0-10.777,8.771-19.569,19.623-19.569c10.787,0,19.516,8.792,19.516,19.569v132.033
	C531.801,737.39,523.072,746.182,512.285,746.182L512.285,746.182z M586.348,703.373c-5.421,9.368-17.371,12.569-26.719,7.148
	l-114.321-66.006c-9.357-5.378-12.569-17.371-7.149-26.719c5.367-9.368,17.318-12.591,26.719-7.149l114.343,66.007
	C588.566,682.032,591.768,694.025,586.348,703.373L586.348,703.373z M579.22,644.516l-114.343,66.006
	c-9.357,5.421-21.352,2.22-26.719-7.148c-5.42-9.348-2.208-21.341,7.149-26.719l114.321-66.007
	c9.348-5.441,21.298-2.219,26.719,7.149C591.768,627.145,588.566,639.138,579.22,644.516L579.22,644.516z M734.109,906.791
	c-11.311,0-20.423-9.155-20.423-20.423V748.529c0-11.289,9.112-20.444,20.423-20.444c11.289,0,20.444,9.155,20.444,20.444v137.839
	C754.554,897.636,745.398,906.791,734.109,906.791L734.109,906.791z M811.512,862.125c-5.655,9.796-18.14,13.104-27.935,7.491
	l-119.358-68.952c-9.795-5.612-13.146-18.118-7.49-27.913c5.677-9.731,18.14-13.104,27.935-7.427l119.358,68.888
	C813.753,839.867,817.124,852.352,811.512,862.125L811.512,862.125z M804.021,800.664l-119.358,68.952
	c-9.795,5.612-22.258,2.305-27.935-7.491c-5.655-9.773-2.305-22.258,7.49-27.913l119.358-68.888
	c9.795-5.677,22.279-2.305,27.935,7.47C817.124,782.546,813.753,795.052,804.021,800.664L804.021,800.664z"/>
</svg>
